findly-builder/apps/searchassist/src/assets/icons/content/latest-content-icons/blue-progress-indicator.svg

<svg width="16" height="16" viewBox="0 0 16 16" fill="none" xmlns="http://www.w3.org/2000/svg">
<path d="M8.33331 4.66683H7.66665C7.48265 4.66683 7.33331 4.5175 7.33331 4.3335V1.66683C7.33331 1.48283 7.48265 1.3335 7.66665 1.3335H8.33331C8.51731 1.3335 8.66665 1.48283 8.66665 1.66683V4.3335C8.66665 4.5175 8.51731 4.66683 8.33331 4.66683Z" fill="#45A1FF"/>
<path d="M8.33331 14.6668H7.66665C7.48265 14.6668 7.33331 14.5175 7.33331 14.3335V11.6668C7.33331 11.4828 7.48265 11.3335 7.66665 11.3335H8.33331C8.51731 11.3335 8.66665 11.4828 8.66665 11.6668V14.3335C8.66665 14.5175 8.51731 14.6668 8.33331 14.6668Z" fill="#0063C4"/>
<path d="M11.3333 8.3335V7.66683C11.3333 7.48283 11.4826 7.3335 11.6666 7.3335H14.3333C14.5173 7.3335 14.6666 7.48283 14.6666 7.66683V8.3335C14.6666 8.5175 14.5173 8.66683 14.3333 8.66683H11.6666C11.4826 8.66683 11.3333 8.5175 11.3333 8.3335Z" fill="#007AF7"/>
<path d="M1.33331 8.3335V7.66683C1.33331 7.48283 1.48265 7.3335 1.66665 7.3335H4.33331C4.51731 7.3335 4.66665 7.48283 4.66665 7.66683V8.3335C4.66665 8.5175 4.51731 8.66683 4.33331 8.66683H1.66665C1.48265 8.66683 1.33331 8.5175 1.33331 8.3335Z" fill="#00508C"/>
<path d="M10.5926 5.87872L10.1213 5.40739C9.99098 5.27705 9.99098 5.06605 10.1213 4.93605L12.007 3.05039C12.1373 2.92005 12.3483 2.92005 12.4783 3.05039L12.9496 3.52172C13.08 3.65205 13.08 3.86305 12.9496 3.99305L11.064 5.87872C10.934 6.00905 10.723 6.00905 10.5926 5.87872Z" fill="#45A1FF"/>
<path d="M3.52166 12.9495L3.05033 12.4782C2.91999 12.3479 2.91999 12.1369 3.05033 12.0069L4.93599 10.1212C5.06633 9.99085 5.27733 9.99085 5.40733 10.1212L5.87866 10.5925C6.00899 10.7229 6.00899 10.9339 5.87866 11.0639L3.99299 12.9495C3.86299 13.0799 3.65166 13.0799 3.52166 12.9495Z" fill="#0063C4"/>
<path d="M10.1213 10.5925L10.5926 10.1212C10.723 9.99085 10.934 9.99085 11.064 10.1212L12.9496 12.0069C13.08 12.1372 13.08 12.3482 12.9496 12.4782L12.4783 12.9495C12.348 13.0799 12.137 13.0799 12.007 12.9495L10.1213 11.0639C9.99098 10.9339 9.99098 10.7229 10.1213 10.5925Z" fill="#007AF7"/>
<path d="M3.05033 3.52172L3.52166 3.05039C3.65199 2.92005 3.86299 2.92005 3.99299 3.05039L5.87866 4.93605C6.00899 5.06639 6.00899 5.27739 5.87866 5.40739L5.40733 5.87872C5.27699 6.00905 5.06599 6.00905 4.93599 5.87872L3.05033 3.99305C2.91999 3.86305 2.91999 3.65172 3.05033 3.52172Z" fill="#00508C"/>
</svg>

<svg width="16" height="16" fill="none" xmlns="http://www.w3.org/2000/svg"><path d="M8.333 4.667h-.666a.333.333 0 0 1-.334-.333V1.667c0-.184.15-.334.334-.334h.666c.184 0 .334.15.334.334v2.667c0 .184-.15.333-.334.333Z" fill="#45A1FF"/><path d="M8.333 14.667h-.666a.333.333 0 0 1-.334-.333v-2.667c0-.184.15-.333.334-.333h.666c.184 0 .334.149.334.333v2.667c0 .184-.15.333-.334.333Z" fill="#0063C4"/><path d="M11.333 8.334v-.667c0-.184.15-.333.334-.333h2.666c.184 0 .334.149.334.333v.667c0 .184-.15.333-.334.333h-2.666a.333.333 0 0 1-.334-.333Z" fill="#007AF7"/><path d="M1.333 8.334v-.667c0-.184.15-.333.334-.333h2.666c.184 0 .334.149.334.333v.667c0 .184-.15.333-.334.333H1.667a.333.333 0 0 1-.334-.333Z" fill="#00508C"/><path d="m10.593 5.879-.472-.472a.333.333 0 0 1 0-.471l1.886-1.886c.13-.13.341-.13.471 0l.472.472c.13.13.13.341 0 .471L11.064 5.88a.333.333 0 0 1-.471 0Z" fill="#45A1FF"/><path d="m3.522 12.95-.472-.472a.333.333 0 0 1 0-.471l1.886-1.886c.13-.13.341-.13.471 0l.472.471c.13.13.13.342 0 .472L3.993 12.95a.333.333 0 0 1-.471 0Z" fill="#0063C4"/><path d="m10.121 10.592.472-.47a.331.331 0 0 1 .471 0l1.886 1.885c.13.13.13.341 0 .471l-.472.472a.333.333 0 0 1-.471 0l-1.886-1.886a.333.333 0 0 1 0-.472Z" fill="#007AF7"/><path d="m3.05 3.522.472-.472c.13-.13.341-.13.471 0l1.886 1.886c.13.13.13.341 0 .471l-.472.472a.333.333 0 0 1-.471 0L3.05 3.993a.333.333 0 0 1 0-.471Z" fill="#00508C"/></svg>
